X:1
T: Jacky Latin
C:
R:Reel
Q: 232
K:D
M:4/4
L:1/8
((3ABc) |dA FA DA FA|dA FG A2 ((3ABc) |dA FA DA FA|GF EF G2 ((3ABc) |
dA FA DA FA|dA FG A2 ((3ABc) |dB cA BG AF|GF EF G2 AF|
DF Ac BG AF|DF AB A2 AF|DF Ac BG AF|GF EF G2 FE|
DF Ac BG AF|DF AB A2 ((3ABc) |dB cA BG AF|GF EF G2 AG|
((3FED) AD BD AD|((3FED) AB A2 AG|((3FED) AD BD AD|GF EF G2 AG|
((3FED) AD BD AD|((3FED) AB A2 ((3ABc) |dB cA BG AF|GF EF G2||
